X: 1
T: Imelda Roland's
R: reel
M: 4/4
L: 1/8
K: Edor
B2 GA BGdB |AD D/D/D AD FD |{A}GFEF G/G/GGA|BAB/c/d egfe |!
d/e/d ce dBAG |FD AD BDAD |{A}GFEF G/G/GGA |B/c/d A=c BE E2 :|!
e/e/e ed efga |be e/e/e bege |d/d/d dc defg |add/d/d adfd |!
e/e/e ef edBc |d/d/d dB AFDF |{A}GFEF G/G/GGA |B/c/d A=c BE E2:|!


Tune 2735	Setting 15971

